X: 20
T:LA MAZURKE
M:3/4
L:1/16
Q:102
C:M.P.
R:mazurka
K:C
G3c|e4 e3G e3G|e4 d3G d3G|1 d4 f3e d3f|e4 c4:|2 d4 f3e d3B|c8|:c3B|A4 A3
B c3A|G4 G3A B3c|1 d4 f3e d3f|e4 c4:|2 d4 f3e d3B|c8||
